packages/symbols/svgs/duotone/box-duotone.svg

<svg width="24" height="24" viewBox="0 0 24 24" xmlns="http://www.w3.org/2000/svg">
<g id="box-duotone">
<path id="Vector" opacity="0.5" d="M15.0918 5.58333H22.1501L16.9251 1.18333C16.7418 1.09167 16.4668 1 16.2834 1H13.3501L15.0918 5.58333Z" stroke="currentColor" stroke-width="2" stroke-linecap="round" stroke-linejoin="round" fill="transparent"/>
<path id="Vector_2" d="M15.6667 7.58334V14H8.33333V7.58334H1V22.25C1 22.8 1.36667 23.1667 1.91667 23.1667H22.0833C22.6333 23.1667 23 22.8 23 22.25V7.58334H15.6667Z" stroke="currentColor" stroke-width="2" stroke-linecap="round" stroke-linejoin="round" fill="transparent"/>
<path id="Vector_3" opacity="0.5" d="M8.60838 5.58333L10.35 1H7.41672C7.23338 1 6.95838 1.09167 6.86672 1.18333L1.55005 5.58333H8.60838Z" stroke="currentColor" stroke-width="2" stroke-linecap="round" stroke-linejoin="round" fill="transparent"/>
</g>
</svg>

<svg width="24" height="24" viewBox="0 0 24 24" xmlns="http://www.w3.org/2000/svg"><g stroke="currentColor" stroke-width="2" stroke-linecap="round" stroke-linejoin="round" fill="transparent"><path opacity=".5" d="M15.092 5.583h7.058l-5.225-4.4c-.183-.091-.458-.183-.642-.183H13.35l1.742 4.583Z"/><path d="M15.667 7.583V14H8.333V7.583H1V22.25c0 .55.367.917.917.917h20.166c.55 0 .917-.367.917-.917V7.583h-7.333Z"/><path opacity=".5" d="M8.608 5.583 10.35 1H7.417c-.184 0-.459.092-.55.183l-5.317 4.4h7.058Z"/></g></svg>
